X:1
T:Title
%%score 1 { 2 | 3 }
L:1/8
Q:1/4=95
M:3/4
K:C
V:1 treble nm="Grand Piano, Soprano"
V:2 treble nm="Choir Pad, Yucatán, N. Mattice, 1890"
V:3 bass 
V:1
 [CE]>[DF] [EG]3 [Ge] | [Ec]>[Fd] [FA]2 [Ac]2 | [GB]>[FA] [EG]3 [FA] | [DF]>[EG] [CE]4 | %4
w: By~Norman~M.~Mattice,~1890 * * *||||
 [CE]>[DF] [EG]3 [Ge] | [Ec]>[Fd] [FA]2 [Ac]2 | [GB]>[FA] [EG]3 [FG] | [FA]>[FB] [Ec]4 | %8
w: ||||
 [DB]>[Ec] [Fd]3 [FG] | [FA]>[FG] [Ec]2 [EG]2 | [FA]>[FA] [^Fd]3 [Fe] | [^Fd]>[Fe] [Gd]4 | %12
w: ||||
 [CE]>[DF] [EG]3 [Ge] | [Ec]>[Fd] [FA]2 [Ac]2 | [GB]>[_EA] [=EG]3 [EG] | [FA]>[FB] [Ec]4- | %16
w: ||||
 [Ec]4 z2 |] %17
w: |
V:2
 G,>G, C3 C | C>C C2 C2 | C>C C3[K:bass] B, | B,>B, G,4 | G,>G,[K:treble] C3 C | C>C C2 C2 | %6
 C>C C3 B, | C>D C4 | G,>G, B,3 B, | C>[K:treble]D C2 C2 | C>C C3 C | C>C[K:bass] B,4 | %12
 G,>G, C3 C | C>C C2 C2 | C>C C3[K:bass] C | B,>G, G,4- | G,4 z2 |] %17
V:3
 C,>C, C,3 C, | C,>C, F,2 F,2 | F,>F, G,3 G, | G,>[G,,G,] C,4 | C,>C, C,3 C, | C,>C, F,2 F,2 | %6
 F,>F, G,3 G, | G,>[G,,G,] C,4 | z2 G,3 G, | G,>G, G,2 G,2 | F,>F, D,3 D, | D,>D, G,4 | %12
 C,>C, C,3 C, | C,>C, F,2 F,2 | F,>^F, G,3 G, | G,>G,, C,4- | C,4 z2 |] %17

